icons/ship-2-fill.svg

<svg viewBox="0 0 24 24" fill="currentColor" xmlns="http://www.w3.org/2000/svg">
    <path d="M9 4H14.4458C14.7905 4 15.111 4.17762 15.2938 4.47L18.75 10H23.1577C23.4339 10 23.6577 10.2239 23.6577 10.5C23.6577 10.5837 23.6367 10.666 23.5967 10.7394L19.6599 17.9568C19.444 17.9853 19.2237 18 19 18C17.3644 18 15.9122 17.2147 15 16.0005C14.0878 17.2147 12.6356 18 11 18C9.3644 18 7.91223 17.2147 7 16.0005C6.08777 17.2147 4.6356 18 3 18C2.81381 18 2.63 17.9898 2.44909 17.97L1.21434 11.1789C1.11555 10.6355 1.47595 10.1149 2.01933 10.0161C2.07835 10.0054 2.13822 10 2.19821 10H3V5C3 4.44772 3.44772 4 4 4H5V1H9V4ZM5 10H16.3915L13.8915 6H5V10ZM3 20C4.53671 20 5.93849 19.4223 7 18.4722C8.06151 19.4223 9.46329 20 11 20C12.5367 20 13.9385 19.4223 15 18.4722C16.0615 19.4223 17.4633 20 19 20H21V22H19C17.5429 22 16.1767 21.6104 15 20.9297C13.8233 21.6104 12.4571 22 11 22C9.54285 22 8.17669 21.6104 7 20.9297C5.82331 21.6104 4.45715 22 3 22H1V20H3Z"/>
</svg>

<svg xmlns="http://www.w3.org/2000/svg" viewBox="0 0 24 24">
    <g>
        <path fill="none" d="M0 0h24v24H0z"/>
        <path d="M9 4h5.446a1 1 0 0 1 .848.47L18.75 10h4.408a.5.5 0 0 1 .439.74l-3.937 7.217A4.992 4.992 0 0 1 15 16 4.992 4.992 0 0 1 11 18a4.992 4.992 0 0 1-4-2 4.992 4.992 0 0 1-4.55 1.97l-1.236-6.791A1 1 0 0 1 2.198 10H3V5a1 1 0 0 1 1-1h1V1h4v3zm-4 6h11.392l-2.5-4H5v4zM3 20a5.978 5.978 0 0 0 4-1.528A5.978 5.978 0 0 0 11 20a5.978 5.978 0 0 0 4-1.528A5.978 5.978 0 0 0 19 20h2v2h-2a7.963 7.963 0 0 1-4-1.07A7.963 7.963 0 0 1 11 22a7.963 7.963 0 0 1-4-1.07A7.963 7.963 0 0 1 3 22H1v-2h2z"/>
    </g>
</svg>
